X:1
T:Title
%%score { 1 | 2 }
L:1/8
Q:1/4=94
M:4/4
K:Eb
V:1 treble nm="Grand Piano"
V:2 bass 
V:1
 GGGG G[GB]EF | G2 G4 GG | [EG]2 [DF]2 [FA]2 [B,D][B,D] | [DF]2 E2 G4 | GGGG G[GB][EG][GB] | %5
w: William~Stone * * * * * * *|||||
 [Ge]2 [Ge]4 [Ac][Ac] | [Ac]2 [GB]2 [B,EG]2 [B,GB][B,GB] | [DFA]2 [B,D]2 [G,B,E]4 | %8
w: |||
[M:1/4] [B,EG][GB] |[M:4/4] [GB]2 G4 EE | E2 D4 [DF][DF] | [DF]2 [DG]2 [DFA]2 [Ac][Ac] | %12
w: ||||
 [Ac]2 [GB]2 [EG]2 [EG][GB] | [Ge]2 [Ge]2 [Ge]2 [Bd][Ac] | [Ac]2 [GB]2 [B,EG]2 [B,GB][EGB] | %15
w: |||
 [DFB]2 [B,DF]2 [B,FA]2[K:bass] [F,B,D][F,B,D] | [F,B,D]2[K:treble] [A,DF]2 [G,B,E]4 |] %17
w: ||
V:2
 [E,B,E][E,B,E][E,B,E][E,B,E] [E,B,E][E,E][E,G,B,][E,A,B,] | [E,B,E]2 [E,B,E]4 [E,B,E][E,B,E] | %2
 [B,,B,]2 [B,,B,]2 [B,,B,]2 [B,,F,][B,,F,] | [B,,A,]2 [E,G,B,]2 [E,B,E]4 | %4
 [E,B,E][E,B,E][E,B,E][E,B,E] [E,B,E][E,E][E,B,][E,E] | [E,B,]2 [E,B,]4 [E,E][E,E] | %6
 [E,E]2 [E,E]2 E,2 E,E, | B,,2 B,,2 E,4 |[M:1/4] E,[E,E] | %9
[M:4/4] [E,E]2 [E,B,E]4 [E,G,B,][E,G,B,] | [E,G,B,]2 [B,,F,B,]4 [B,,B,][B,,B,] | %11
 [B,,B,]2 [B,,B,]2 B,,2 [E,E][E,E] | [E,E]2 [E,E]2 [E,B,]2 [E,B,][E,E] | %13
 [E,B,]2 [E,B,]2 [E,B,]2 [E,E][E,E] | [E,E]2 [E,E]2 E,2 E,E, | B,,2 B,,2 B,,2 B,,B,, | %16
 B,,2 B,,2 E,4 |] %17

